X:1
T:Yes We Have No Bananas
T:Yes We Have No Bananas
T:Frank Silver & Irving Cohn
C:Frank Silver & Irving Cohn
Z:All Rights Reserved
L:1/4
M:2/2
K:C
V:1 treble 
%%MIDI program 40
%%MIDI control 7 100
%%MIDI control 10 64
V:1
"C" c z z G |"F" A"C/E" G z"G7/D" F |"C" E G3- | G z z ^G |"D7" A d z c |"G7" B A z B | %6
w: Yes We|Have No Ba-|na- nas,|* We|have no ba-|na- nas to|
"C""Dm7" c4- |"Ebdim""C/E" c3 G |"F6" A d z c |"Fm6" _A d z c |"C" G d z c |"Am" G d z c | %12
w: day.|* We've|string beans and|HON- ions, cab-|BAH- ges and|scal- lions and|
"B7/F#" ^F G z A | B2 B2 |"E" B4- |"G7" B/ z/ E F ^F |"C" G4 |"F7" A A2 G |"C" G c3- | c4 | %20
w: all kinds of|fruit and|say.|* We have an|old-|fash- ioned to-|MAH- to,||
"F6" c4 | d d2 c | c A3- | A2"G7" G2 |"C" c z z G |"F" A"C/E" G z"G7/D" F |"C" E"Gm6/Bb" G3- | %27
w: Long|Is- land po-|TAH- to,|* but|Yes, we|have no ba-|na- nas,|
"A7" G3 ^G |"D7/A" A d z c |"G7" B A z B |"C""F7" c4- |"C" c3 z |] %32
w: * we|have no- ba-|na- nas to|day.-||

